//s.options.device_("ASIO : ASIO4ALL v2");

s.waitForBoot{
	("".resolveRelative++"main.scd").load;

s.meter
};


	//		("".resolveRelative++"techno1.5_cat.scd").load;
//	("".resolveRelative++"testTechno.scd").load;
